Gems/AtomLyIntegration/CommonFeatures/Resources/ColorGrading/LUTs/inverse_sRGB.3dl
3DMESH
Mesh 5 12
0 32 64 96 128 160 192 224 256 288 320 352 384 416 448 480 512 543 575 607 639 671 703 735 767 799 831 863 895 927 959 991 1023
0 0 0
0 0 10
0 0 21
0 0 37
0 0 59
0 0 86
0 0 120
0 0 161
0 0 208
0 0 263
0 0 326
0 0 396
0 0 475
0 0 562
0 0 658
0 0 763
0 0 876
0 0 1000
0 0 1132
0 0 1275
0 0 1427
0 0 1590
0 0 1762
0 0 1946
0 0 2140
0 0 2345
0 0 2560
0 0 2787
0 0 3026
0 0 3275
0 0 3537
0 0 3810
0 0 4095
0 10 0
0 10 10
0 10 21
0 10 37
0 10 59
0 10 86
0 10 120
0 10 161
0 10 208
0 10 263
0 10 326
0 10 396
0 10 475
0 10 562
0 10 658
0 10 763
0 10 876
0 10 1000
0 10 1132
0 10 1275
0 10 1427
0 10 1590
0 10 1762
0 10 1946
0 10 2140
0 10 2345
0 10 2560
0 10 2787
0 10 3026
0 10 3275
0 10 3537
0 10 3810
0 10 4095
0 21 0
0 21 10
0 21 21
0 21 37
0 21 59
0 21 86
0 21 120
0 21 161
0 21 208
0 21 263
0 21 326
0 21 396
0 21 475
0 21 562
0 21 658
0 21 763
0 21 876
0 21 1000
0 21 1132
0 21 1275
0 21 1427
0 21 1590
0 21 1762
0 21 1946
0 21 2140
0 21 2345
0 21 2560
0 21 2787
0 21 3026
0 21 3275
0 21 3537
0 21 3810
0 21 4095
0 37 0
0 37 10
0 37 21
0 37 37
0 37 59
0 37 86
0 37 120
0 37 161
0 37 208
0 37 263
0 37 326
0 37 396
0 37 475
0 37 562
0 37 658
0 37 763
0 37 876
0 37 1000
0 37 1132
0 37 1275
0 37 1427
0 37 1590
0 37 1762
0 37 1946
0 37 2140
0 37 2345
0 37 2560
0 37 2787
0 37 3026
0 37 3275
0 37 3537
0 37 3810
0 37 4095
0 59 0
0 59 10
0 59 21
0 59 37
0 59 59
0 59 86
0 59 120
0 59 161
0 59 208
0 59 263
0 59 326
0 59 396
0 59 475
0 59 562
0 59 658
0 59 763
0 59 876
0 59 1000
0 59 1132
0 59 1275
0 59 1427
0 59 1590
0 59 1762
0 59 1946
0 59 2140
0 59 2345
0 59 2560
0 59 2787
0 59 3026
0 59 3275
0 59 3537
0 59 3810
0 59 4095
0 86 0
0 86 10
0 86 21
0 86 37
0 86 59
0 86 86
0 86 120
0 86 161
0 86 208
0 86 263
0 86 326
0 86 396
0 86 475
0 86 562
0 86 658
0 86 763
0 86 876
0 86 1000
0 86 1132
0 86 1275
0 86 1427
0 86 1590
0 86 1762
0 86 1946
0 86 2140
0 86 2345
0 86 2560
0 86 2787
0 86 3026
0 86 3275
0 86 3537
0 86 3810
0 86 4095
0 120 0
0 120 10
0 120 21
0 120 37
0 120 59
0 120 86
0 120 120
0 120 161
0 120 208
0 120 263
0 120 326
0 120 396
0 120 475
0 120 562
0 120 658
0 120 763
0 120 876
0 120 1000
0 120 1132
0 120 1275
0 120 1427
0 120 1590
0 120 1762
0 120 1946
0 120 2140
0 120 2345
0 120 2560
0 120 2787
0 120 3026
0 120 3275
0 120 3537
0 120 3810
0 120 4095
0 161 0
0 161 10
0 161 21
0 161 37
0 161 59
0 161 86
0 161 120
0 161 161
0 161 208
0 161 263
0 161 326
0 161 396
0 161 475
0 161 562
0 161 658
0 161 763
0 161 876
0 161 1000
0 161 1132
0 161 1275
0 161 1427
0 161 1590
0 161 1762
0 161 1946
0 161 2140
0 161 2345
0 161 2560
0 161 2787
0 161 3026
0 161 3275
0 161 3537
0 161 3810
0 161 4095
0 208 0
0 208 10
0 208 21
0 208 37
0 208 59
0 208 86
0 208 120
0 208 161
0 208 208
0 208 263
0 208 326
0 208 396
0 208 475
0 208 562
0 208 658
0 208 763
0 208 876
0 208 1000
0 208 1132
0 208 1275
0 208 1427
0 208 1590
0 208 1762
0 208 1946
0 208 2140
0 208 2345
0 208 2560
0 208 2787
0 208 3026
0 208 3275
0 208 3537
0 208 3810
0 208 4095
0 263 0
0 263 10
0 263 21
0 263 37
0 263 59
0 263 86
0 263 120
0 263 161
0 263 208
0 263 263
0 263 326
0 263 396
0 263 475
0 263 562
0 263 658
0 263 763
0 263 876
0 263 1000
0 263 1132
0 263 1275
0 263 1427
0 263 1590
0 263 1762
0 263 1946
0 263 2140
0 263 2345
0 263 2560
0 263 2787
0 263 3026
0 263 3275
0 263 3537
0 263 3810
0 263 4095
0 326 0
0 326 10
0 326 21
0 326 37
0 326 59
0 326 86
0 326 120
0 326 161
0 326 208
0 326 263
0 326 326
0 326 396
0 326 475
0 326 562
0 326 658
0 326 763
0 326 876
0 326 1000
0 326 1132
0 326 1275
0 326 1427
0 326 1590
0 326 1762
0 326 1946
0 326 2140
0 326 2345
0 326 2560
0 326 2787
0 326 3026
0 326 3275
0 326 3537
0 326 3810
0 326 4095
0 396 0
0 396 10
0 396 21
0 396 37
0 396 59
0 396 86
0 396 120
0 396 161
0 396 208
0 396 263
0 396 326
0 396 396
0 396 475
0 396 562
0 396 658
0 396 763
0 396 876
0 396 1000
0 396 1132
0 396 1275
0 396 1427
0 396 1590
0 396 1762
0 396 1946
0 396 2140
0 396 2345
0 396 2560
0 396 2787
0 396 3026
0 396 3275
0 396 3537
0 396 3810
0 396 4095
0 475 0
0 475 10
0 475 21
0 475 37
0 475 59
0 475 86
0 475 120
0 475 161
0 475 208
0 475 263
0 475 326
0 475 396
0 475 475
0 475 562
0 475 658
0 475 763
0 475 876
0 475 1000
0 475 1132
0 475 1275
0 475 1427
0 475 1590
0 475 1762
0 475 1946
0 475 2140
0 475 2345
0 475 2560
0 475 2787
0 475 3026
0 475 3275
0 475 3537
0 475 3810
0 475 4095
0 562 0
0 562 10
0 562 21
0 562 37
0 562 59
0 562 86
0 562 120
0 562 161
0 562 208
0 562 263
0 562 326
0 562 396
0 562 475
0 562 562
0 562 658
0 562 763
0 562 876
0 562 1000
0 562 1132
0 562 1275
0 562 1427
0 562 1590
0 562 1762
0 562 1946
0 562 2140
0 562 2345
0 562 2560
0 562 2787
0 562 3026
0 562 3275
0 562 3537
0 562 3810
0 562 4095
0 658 0
0 658 10
0 658 21
0 658 37
0 658 59
0 658 86
0 658 120
0 658 161
0 658 208
0 658 263
0 658 326
0 658 396
0 658 475
0 658 562
0 658 658
0 658 763
0 658 876
0 658 1000
0 658 1132
0 658 1275
0 658 1427
0 658 1590
0 658 1762
0 658 1946
0 658 2140
0 658 2345
0 658 2560
0 658 2787
0 658 3026
0 658 3275
0 658 3537
0 658 3810
0 658 4095
0 763 0
0 763 10
0 763 21
0 763 37
0 763 59
0 763 86
0 763 120
0 763 161
0 763 208
0 763 263
0 763 326
0 763 396
0 763 475
0 763 562
0 763 658
0 763 763
0 763 876
0 763 1000
0 763 1132
0 763 1275
0 763 1427
0 763 1590
0 763 1762
0 763 1946
0 763 2140
0 763 2345
0 763 2560
0 763 2787
0 763 3026
0 763 3275
0 763 3537
0 763 3810
0 763 4095
0 876 0
0 876 10
0 876 21
0 876 37
0 876 59
0 876 86
0 876 120
0 876 161
0 876 208
0 876 263
0 876 326
0 876 396
0 876 475
0 876 562
0 876 658
0 876 763
0 876 876
0 876 1000
0 876 1132
0 876 1275
0 876 1427
0 876 1590
0 876 1762
0 876 1946
0 876 2140
0 876 2345
0 876 2560
0 876 2787
0 876 3026
0 876 3275
0 876 3537
0 876 3810
0 876 4095
0 1000 0
0 1000 10
0 1000 21
0 1000 37
0 1000 59
0 1000 86
0 1000 120
0 1000 161
0 1000 208
0 1000 263
0 1000 326
0 1000 396
0 1000 475
0 1000 562
0 1000 658
0 1000 763
0 1000 876
0 1000 1000
0 1000 1132
0 1000 1275
0 1000 1427
0 1000 1590
0 1000 1762
0 1000 1946
0 1000 2140
0 1000 2345
0 1000 2560
0 1000 2787
0 1000 3026
0 1000 3275
0 1000 3537
0 1000 3810
0 1000 4095
0 1132 0
0 1132 10
0 1132 21
0 1132 37
0 1132 59
0 1132 86
0 1132 120
0 1132 161
0 1132 208
0 1132 263
0 1132 326
0 1132 396
0 1132 475
0 1132 562
0 1132 658
0 1132 763
0 1132 876
0 1132 1000
0 1132 1132
0 1132 1275
0 1132 1427
0 1132 1590
0 1132 1762
0 1132 1946
0 1132 2140
0 1132 2345
0 1132 2560
0 1132 2787
0 1132 3026
0 1132 3275
0 1132 3537
0 1132 3810
0 1132 4095
0 1275 0
0 1275 10
0 1275 21
0 1275 37
0 1275 59
0 1275 86
0 1275 120
0 1275 161
0 1275 208
0 1275 263
0 1275 326
0 1275 396
0 1275 475
0 1275 562
0 1275 658
0 1275 763
0 1275 876
0 1275 1000
0 1275 1132
0 1275 1275
0 1275 1427
0 1275 1590
0 1275 1762
0 1275 1946
0 1275 2140
0 1275 2345
0 1275 2560
0 1275 2787
0 1275 3026
0 1275 3275
0 1275 3537
0 1275 3810
0 1275 4095
0 1427 0
0 1427 10
0 1427 21
0 1427 37
0 1427 59
0 1427 86
0 1427 120
0 1427 161
0 1427 208
0 1427 263
0 1427 326
0 1427 396
0 1427 475
0 1427 562
0 1427 658
0 1427 763
0 1427 876
0 1427 1000
0 1427 1132
0 1427 1275
0 1427 1427
0 1427 1590
0 1427 1762
0 1427 1946
0 1427 2140
0 1427 2345
0 1427 2560
0 1427 2787
0 1427 3026
0 1427 3275
0 1427 3537
0 1427 3810
0 1427 4095
0 1590 0
0 1590 10
0 1590 21
0 1590 37
0 1590 59
0 1590 86
0 1590 120
0 1590 161
0 1590 208
0 1590 263
0 1590 326
0 1590 396
0 1590 475
0 1590 562
0 1590 658
0 1590 763
0 1590 876
0 1590 1000
0 1590 1132
0 1590 1275
0 1590 1427
0 1590 1590
0 1590 1762
0 1590 1946
0 1590 2140
0 1590 2345
0 1590 2560
0 1590 2787
0 1590 3026
0 1590 3275
0 1590 3537
0 1590 3810
0 1590 4095
0 1762 0
0 1762 10
0 1762 21
0 1762 37
0 1762 59
0 1762 86
0 1762 120
0 1762 161
0 1762 208
0 1762 263
0 1762 326
0 1762 396
0 1762 475
0 1762 562
0 1762 658
0 1762 763
0 1762 876
0 1762 1000
0 1762 1132
0 1762 1275
0 1762 1427
0 1762 1590
0 1762 1762
0 1762 1946
0 1762 2140
0 1762 2345
0 1762 2560
0 1762 2787
0 1762 3026
0 1762 3275
0 1762 3537
0 1762 3810
0 1762 4095
0 1946 0
0 1946 10
0 1946 21
0 1946 37
0 1946 59
0 1946 86
0 1946 120
0 1946 161
0 1946 208
0 1946 263
0 1946 326
0 1946 396
0 1946 475
0 1946 562
0 1946 658
0 1946 763
0 1946 876
0 1946 1000
0 1946 1132
0 1946 1275
0 1946 1427
0 1946 1590
0 1946 1762
0 1946 1946
0 1946 2140
0 1946 2345
0 1946 2560
0 1946 2787
0 1946 3026
0 1946 3275
0 1946 3537
0 1946 3810
0 1946 4095
0 2140 0
0 2140 10
0 2140 21
0 2140 37
0 2140 59
0 2140 86
0 2140 120
0 2140 161
0 2140 208
0 2140 263
0 2140 326
0 2140 396
0 2140 475
0 2140 562
0 2140 658
0 2140 763
0 2140 876
0 2140 1000
0 2140 1132
0 2140 1275
0 2140 1427
0 2140 1590
0 2140 1762
0 2140 1946
0 2140 2140
0 2140 2345
0 2140 2560
0 2140 2787
0 2140 3026
0 2140 3275
0 2140 3537
0 2140 3810
0 2140 4095
0 2345 0
0 2345 10
0 2345 21
0 2345 37
0 2345 59
0 2345 86
0 2345 120
0 2345 161
0 2345 208
0 2345 263
0 2345 326
0 2345 396
0 2345 475
0 2345 562
0 2345 658
0 2345 763
0 2345 876
0 2345 1000
0 2345 1132
0 2345 1275
0 2345 1427
0 2345 1590
0 2345 1762
0 2345 1946
0 2345 2140
0 2345 2345
0 2345 2560
0 2345 2787
0 2345 3026
0 2345 3275
0 2345 3537
0 2345 3810
0 2345 4095
0 2560 0
0 2560 10
0 2560 21
0 2560 37
0 2560 59
0 2560 86
0 2560 120
0 2560 161
0 2560 208
0 2560 263
0 2560 326
0 2560 396
0 2560 475
0 2560 562
0 2560 658
0 2560 763
0 2560 876
0 2560 1000
0 2560 1132
0 2560 1275
0 2560 1427
0 2560 1590
0 2560 1762
0 2560 1946
0 2560 2140
0 2560 2345
0 2560 2560
0 2560 2787
0 2560 3026
0 2560 3275
0 2560 3537
0 2560 3810
0 2560 4095
0 2787 0
0 2787 10
0 2787 21
0 2787 37
0 2787 59
0 2787 86
0 2787 120
0 2787 161
0 2787 208
